img/mastodon.svg

<svg fill="none" height="32" viewBox="0 0 32 32" width="32" xmlns="http://www.w3.org/2000/svg"><path d="m28.0702 18.7061c-.3729 1.9187-3.3403 4.0186-6.7484 4.4255-1.7772.2121-3.5269.407-5.3927.3214-3.0514-.1398-5.4592-.7283-5.4592-.7283 0 .297.0184.5799.055.8444.3967 3.0114 2.986 3.1917 5.4387 3.2759 2.4756.0847 4.68-.6104 4.68-.6104l.1017 2.238s-1.7316.9299-4.8162 1.1009c-1.701.0935-3.813-.0428-6.27292-.6939-5.33513-1.4121-6.25266-7.0991-6.39305-12.8695-.04279-1.7132-.01641-3.3288-.01641-4.6799 0-5.90052 3.86602-7.63005 3.86602-7.63005 1.94935-.89525 5.29426-1.27173 8.77166-1.30016h.0854c3.4774.02843 6.8245.40491 8.7737 1.30016 0 0 3.8659 1.72953 3.8659 7.63005 0 0 .0485 4.3534-.5392 7.3759z" fill="#2b90d9"/><path d="m24.0493 11.7879v7.1446h-2.8305v-6.9346c0-1.4618-.6151-2.20373-1.8453-2.20373-1.3603 0-2.042.88013-2.042 2.62053v3.7957h-2.8138v-3.7957c0-1.7404-.6819-2.62053-2.0421-2.62053-1.2303 0-1.8453.74193-1.8453 2.20373v6.9346h-2.83056v-7.1446c0-1.4602.37179-2.6205 1.11859-3.47897.77009-.85846 1.77857-1.29854 3.03057-1.29854 1.4484 0 2.5453.55673 3.2706 1.67033l.705 1.18189.7052-1.18189c.7251-1.1136 1.822-1.67033 3.2706-1.67033 1.2518 0 2.2603.44008 3.0306 1.29854.7466.85847 1.1184 2.01877 1.1184 3.47897z" fill="#fff"/></svg>

<svg width="32" height="32" viewBox="0 0 32 32" fill="none" xmlns="http://www.w3.org/2000/svg">
<path d="M28.0702 18.7061C27.6973 20.6248 24.7299 22.7247 21.3218 23.1316C19.5446 23.3437 17.7949 23.5386 15.9291 23.453C12.8777 23.3132 10.4699 22.7247 10.4699 22.7247C10.4699 23.0217 10.4883 23.3046 10.5249 23.5691C10.9216 26.5805 13.5109 26.7608 15.9636 26.845C18.4392 26.9297 20.6436 26.2346 20.6436 26.2346L20.7453 28.4726C20.7453 28.4726 19.0137 29.4025 15.9291 29.5735C14.2281 29.667 12.1161 29.5307 9.65618 28.8796C4.32105 27.4675 3.40352 21.7805 3.26313 16.0101C3.22034 14.2969 3.24672 12.6813 3.24672 11.3302C3.24672 5.42968 7.11274 3.70015 7.11274 3.70015C9.06209 2.8049 12.407 2.42842 15.8844 2.39999H15.9698C19.4472 2.42842 22.7943 2.8049 24.7435 3.70015C24.7435 3.70015 28.6094 5.42968 28.6094 11.3302C28.6094 11.3302 28.6579 15.6836 28.0702 18.7061Z" fill="#2B90D9"/>
<path d="M24.0493 11.7879V18.9325H21.2188V11.9979C21.2188 10.5361 20.6037 9.79417 19.3735 9.79417C18.0132 9.79417 17.3315 10.6743 17.3315 12.4147V16.2104H14.5177V12.4147C14.5177 10.6743 13.8358 9.79417 12.4756 9.79417C11.2453 9.79417 10.6303 10.5361 10.6303 11.9979V18.9325H7.79974V11.7879C7.79974 10.3277 8.17153 9.1674 8.91833 8.30893C9.68842 7.45047 10.6969 7.01039 11.9489 7.01039C13.3973 7.01039 14.4942 7.56712 15.2195 8.68072L15.9245 9.86261L16.6297 8.68072C17.3548 7.56712 18.4517 7.01039 19.9003 7.01039C21.1521 7.01039 22.1606 7.45047 22.9309 8.30893C23.6775 9.1674 24.0493 10.3277 24.0493 11.7879Z" fill="white"/>
</svg>
